SVG/wrench.svg

<?xml version="1.0" encoding="utf-8"?>
<!-- Generated by IcoMoon.io -->
<!DOCTYPE svg PUBLIC "-//W3C//DTD SVG 1.1//EN" "http://www.w3.org/Graphics/SVG/1.1/DTD/svg11.dtd">
<svg version="1.1" xmlns="http://www.w3.org/2000/svg" xmlns:xlink="http://www.w3.org/1999/xlink" width="13" height="14" viewBox="0 0 13 14">
<path fill="#444444" d="M3 11.5q0-0.203-0.148-0.352t-0.352-0.148-0.352 0.148-0.148 0.352 0.148 0.352 0.352 0.148 0.352-0.148 0.148-0.352zM8.031 8.219l-5.328 5.328q-0.289 0.289-0.703 0.289-0.406 0-0.711-0.289l-0.828-0.844q-0.297-0.281-0.297-0.703 0-0.414 0.297-0.711l5.32-5.32q0.305 0.766 0.895 1.355t1.355 0.895zM12.984 4.82q0 0.305-0.18 0.828-0.367 1.047-1.285 1.699t-2.020 0.652q-1.445 0-2.473-1.027t-1.027-2.473 1.027-2.473 2.473-1.027q0.453 0 0.949 0.129t0.84 0.363q0.125 0.086 0.125 0.219t-0.125 0.219l-2.289 1.32v1.75l1.508 0.836q0.039-0.023 0.617-0.379t1.059-0.633 0.551-0.277q0.117 0 0.184 0.078t0.066 0.195z"></path>
</svg>

<svg xmlns="http://www.w3.org/2000/svg" viewBox="0 0 13 14"><path d="M3 11.5q0-.203-.148-.352T2.5 11t-.352.148T2 11.5t.148.352T2.5 12t.352-.148T3 11.5zm5.03-3.28l-5.327 5.327q-.29.29-.703.29-.406 0-.71-.29l-.83-.844Q.165 12.423.165 12q0-.414.297-.71l5.32-5.32q.306.765.896 1.354t1.355.895zm4.954-3.4q0 .305-.18.828-.367 1.047-1.285 1.7t-2.02.65Q8.052 8 7.024 6.973T6 4.5t1.026-2.474T9.5 1q.452 0 .948.128t.84.363q.125.088.125.22t-.125.22l-2.29 1.32V5l1.51.835q.038-.023.616-.38t1.06-.632.55-.277q.117 0 .184.078t.066.195z" /></svg>
